svg/location.svg

<?xml version="1.0" encoding="iso-8859-1"?>
<!-- Generator: Adobe Illustrator 16.0.0, SVG Export Plug-In . SVG Version: 6.00 Build 0)  -->
<!DOCTYPE svg PUBLIC "-//W3C//DTD SVG 1.1//EN" "http://www.w3.org/Graphics/SVG/1.1/DTD/svg11.dtd">
<svg version="1.1" id="Capa_1" xmlns="http://www.w3.org/2000/svg" xmlns:xlink="http://www.w3.org/1999/xlink" x="0px" y="0px"
	 width="413.099px" height="413.099px" viewBox="0 0 413.099 413.099" style="enable-background:new 0 0 413.099 413.099;"
	 xml:space="preserve">
<g>
	<g>
		<path style="fill:#433850;" d="M206.549,0L206.549,0c-82.6,0-149.3,66.7-149.3,149.3c0,28.8,9.2,56.3,22,78.899l97.3,168.399c6.1,11,18.4,16.5,30,16.5
			c11.601,0,23.3-5.5,30-16.5l97.3-168.299c12.9-22.601,22-49.601,22-78.901C355.849,66.8,289.149,0,206.549,0z M206.549,193.4
			c-30,0-54.5-24.5-54.5-54.5s24.5-54.5,54.5-54.5s54.5,24.5,54.5,54.5C261.049,169,236.549,193.4,206.549,193.4z"/>
	</g>
</g>
<g>
</g>
<g>
</g>
<g>
</g>
<g>
</g>
<g>
</g>
<g>
</g>
<g>
</g>
<g>
</g>
<g>
</g>
<g>
</g>
<g>
</g>
<g>
</g>
<g>
</g>
<g>
</g>
<g>
</g>
</svg>

<?xml version="1.0" encoding="utf-8"?>
<svg version="1.1" id="Capa_1" x="0px" y="0px" width="413.099px" height="413.099px" viewBox="0 0 413.099 413.099" style="enable-background:new 0 0 413.099 413.099;" xmlns="http://www.w3.org/2000/svg">
  <path style="fill:#433850;" d="M 206.549 0 C 123.949 0 57.249 66.7 57.249 149.3 C 57.249 178.1 66.449 205.6 79.249 228.199 L 176.549 396.598 C 182.649 407.598 194.949 413.098 206.549 413.098 C 218.15 413.098 229.849 407.598 236.549 396.598 L 333.849 228.299 C 346.749 205.698 355.849 178.698 355.849 149.398 C 355.849 66.8 289.149 0 206.549 0 Z M 206.549 193.4 C 176.549 193.4 152.049 168.9 152.049 138.9 C 152.049 108.9 176.549 84.4 206.549 84.4 C 236.549 84.4 261.049 108.9 261.049 138.9 C 261.049 169 236.549 193.4 206.549 193.4 Z"/>
</svg>
